X:412
T:Bear Island Reel
T:R\'il Bheara
R:reel
C:Finbar Dwyer
S:Session
Z:id:hn-reel-412
M:C|
K:Edor
EB^GB A^GEc|dBcA Beec|d2fd AFDF|GEFD EDB,A,|
B,EEF GFGA|BdAd (3Bcd ef|g2fg efge|1 dBAF E2ED:|2 dBAF E4||
|:Be~e2 gefd|(3Bcd AG FDD2|Be~e2 gefd|(3efe df e2ef|
edBc dBed|BcdB AFDF|GB~B2 AGFA|1 GEFD E4:|2 GEFD E2ED||
